svgs/sharp-thin/shoe-prints.svg

<svg xmlns="http://www.w3.org/2000/svg" viewBox="0 0 640 512"><!--! Font Awesome Pro 6.6.0 by @fontawesome - https://fontawesome.com License - https://fontawesome.com/license (Commercial License) Copyright 2024 Fonticons, Inc. --><path d="M327.2 145.7l-3.4-1.7-3.8 0-48 0 0-98.4L446.7 16.4 624 75.5l0 88L449.9 207 327.2 145.7zM256 160l16 0 48 0 128 64 192-48 0-112L448 0 256 32l0 112 0 16zM199.2 366.3L321.9 305 496 348.5l0 88L318.7 495.6 144 466.4l0-98.4 48 0 3.8 0 3.4-1.7zM128 352l0 16 0 112 192 32 192-64 0-112L320 288 192 352l-48 0-16 0zM0 352l0 8L0 472l0 8 8 0 88 0 0-16-80 0 0-96 80 0 0-16L8 352l-8 0zM136 160l88 0 0-16-80 0 0-96 80 0 0-16-88 0-8 0 0 8 0 112 0 8 8 0z"/></svg>

<svg xmlns="http://www.w3.org/2000/svg" viewBox="0 0 640 512"><!--! Font Awesome Pro 6.5.2 by @fontawesome - https://fontawesome.com License - https://fontawesome.com/license (Commercial License) Copyright 2024 Fonticons, Inc. --><path d="M327.2 145.7l-3.4-1.7H320 272V45.6L446.7 16.4 624 75.5v88L449.9 207 327.2 145.7zM256 160h16 48l128 64 192-48V64L448 0 256 32V144v16zM199.2 366.3L321.9 305 496 348.5v88L318.7 495.6 144 466.4V368h48 3.8l3.4-1.7zM128 352v16V480l192 32 192-64V336L320 288 192 352H144 128zM0 352v8V472v8H8 96V464H16V368H96V352H8 0zM136 160h88V144H144V48h80V32H136h-8v8V152v8h8z"/></svg>
